X: 17040
T: Heath And Bernie's
R: reel
M: 4/4
K: Edorian
|:B2 EF GABA|FAEB edBA|d2 fe dcBA|FAdc BAGA|
B2 EF GABA|FAEB edBA|d2 fe dcBA|BdcA B2 GA:|
|:efga g2 eB|efga bgeB|efga g2 ec|decd cBGA|
efga g2 eB|efga befg|a3 g fedc|dAcA BAGA:|

